**kern	**text	**kern	**text	**kern	**text	**kern	**text	**kern	**text	**cdata-harm
*staff5	*staff5	*staff4	*staff4	*staff3	*staff3	*staff2	*staff2	*staff1	*staff1	*
=1-	=1-	=1-	=1-	=1-	=1-	=1-	=1-	=1-	=1-	=1-
*clefF4	*	*clefGv2	*	*clefGv2	*	*clefG2	*	*clefG2	*	*
*k[b-]	*	*k[b-]	*	*k[b-]	*	*k[b-]	*	*k[b-]	*	*
*M4/4	*	*M4/4	*	*M4/4	*	*M4/4	*	*M4/4	*	*
1r	.	1G/	A-	1g\	A-	1b-\	A-	1dd\	A-	<HOM_5v
=2	=2	=2	=2	=2	=2	=2	=2	=2	=2	.
1r	.	2d\	mor	2f\	mor	2a/	mor	2dd\	mor	.
.	.	4r	.	4r	.	4r	.	4r	.	.
.	.	4B-\	con	4f\	con	4b-\	con	4dd\	con	.
=3	=3	=3	=3	=3	=3	=3	=3	=3	=3	.
1r	.	4F/	l'ar-	4f\	l'ar-	4a/	l'ar-	4cc\	l'ar-	.
.	.	4G/	bor	4d\	bor	4g/	bor	4b-\	bor	.
.	.	2D/	mio	2d\	mio	2f#/	mio	2a/	mio	.
=4	=4	=4	=4	=4	=4	=4	=4	=4	=4	.
4r	.	1r	.	4r	.	4r	.	4r	.	.
4G\	con	.	.	4d\	con	4g/	con	4b-\	con	.
4D\	l'ar-	.	.	4d\	l'ar-	4f/	l'ar-	4a/	l'ar-	.
4E\	bor	.	.	4B-\	bor	4e-/	bor	4g/	bor	.
=5	=5	=5	=5	=5	=5	=5	=5	=5	=5	.
1BB-/	mio	2r	.	2.B-\	mio	2.d/	mio	1f/	mio	>
.	.	2F/	sec-	.	.	.	.	.	.	.
.	.	.	.	4d\	sec-	4f/	sec-	.	.	<HOM_3v
=6	=6	=6	=6	=6	=6	=6	=6	=6	=6	.
1r	.	2G/	ca&egrave;	2B-\	ca&egrave;	4e-/	ca	1r	.	.
.	.	.	.	.	.	4d/	&egrave;	.	.	.
.	.	2F/	mia	2A/	mia	[2d/	mia	.	.	.
=7	=7	=7	=7	=7	=7	=7	=7	=7	=7	.
1r	.	1E-/	spe-	1G/	spe-	4d/]	.	1r	.	.
.	.	.	.	.	.	8c/L	spe-	.	.	.
.	.	.	.	.	.	8B-/J	.	.	.	.
.	.	.	.	.	.	2c/	.	.	.	.
=8	=8	=8	=8	=8	=8	=8	=8	=8	=8	.
1r	.	1D/	ne	1F#/	ne	1d/	ne	1r	.	>
=9	=9	=9	=9	=9	=9	=9	=9	=9	=9	.
2D\	E	2F#/	E	2A/	E	2d/	E	1r	.	<HOM_4v
4C/	del	4G/	del	4c\	del	4e/	del	.	.	.
4BB-/	suo	4B-\	suo	4d\	suo	4f/	suo	.	.	.
=10	=10	=10	=10	=10	=10	=10	=10	=10	=10	.
4.F\	ver-	4.A/	ver-	4.c\	ver-	4.f/	ver-	1r	.	.
8F\	de&agrave;	8A/	de&agrave;	8c\	de&agrave;	8f/	de&agrave;	.	.	.
4F\	lo	4A/	lo	4c\	lo	4f/	lo	.	.	.
4D\	spa-	4A/	spa-	4d\	spa-	4f/	spa-	.	.	.
=11	=11	=11	=11	=11	=11	=11	=11	=11	=11	.
4E-\	ri-	4G/	ri-	4B-\	ri-	4e-/	ri-	1r	.	.
4C/	re&egrave;	4G/	re&egrave;	4c\	re&egrave;	4e-/	re&egrave;	.	.	.
2D\	spar-	2F#/	spar-	2A/	spar-	2d/	spar-	.	.	.
=12	=12	=12	=12	=12	=12	=12	=12	=12	=12	.
2GG/	so	2G/	so	2Bn\	so	2d/	so	1r	.	>
2r	.	2r	.	2r	.	2r	.	.	.	.
=13	=13	=13	=13	=13	=13	=13	=13	=13	=13	.
1r	.	2G/	E	2B-\	E	2d/	E	2g/	E	<HOM_4v_rep
.	.	4F/	del	4c\	del	4f/	del	4a/	del	.
.	.	4E-/	suo	4e-\	suo	4g/	suo	4b-\	suo	.
=14	=14	=14	=14	=14	=14	=14	=14	=14	=14	.
1r	.	4.B-\	ver-	4.d\	ver-	4.f/	ver-	4.b-\	ver-	.
.	.	8B-\	de&agrave;	8d\	de&agrave;	8f/	de&agrave;	8b-\	de&agrave;	.
.	.	4B-\	lo	4d\	lo	4f/	lo	4b-\	lo	.
.	.	4G/	spa-	4d\	spa-	4g/	spa-	4b-\	spa-	.
=15	=15	=15	=15	=15	=15	=15	=15	=15	=15	.
1r	.	4A-/	ri-	4c\	ri-	4e-/	ri-	4a-/	ri-	.
.	.	4F/	re&egrave;s-	4c\	re&egrave;s-	4f/	re&egrave;s-	4a-/	re&egrave;s-	.
.	.	2G/	par-	2Bn\	par-	2d/	par-	2g/	par-	.
=16	=16	=16	=16	=16	=16	=16	=16	=16	=16	.
2r	.	2C/	so	2c\	.	2en/	so	2g/	so	.
4r	.	4r	.	2c\	so	4r	.	4r	.	>
4F\	Re-	4c\	Re-	.	.	4f/	Re-	4a/	Re-	<HOM_4v
=17	=17	=17	=17	=17	=17	=17	=17	=17	=17	.
4.F\	pen-	4.c\	pen-	1r	.	4.f/	pen-	4.a/	pen-	.
8D\	teog-	8d\	teog-	.	.	8f/	teog-	8a/	teog-	.
4E\	ni	4B-\	ni	.	.	4e-/	ni	4g/	ni	.
4BB-/	mio	[4B-\	mio	.	.	4d/	mio	4f/	mio	.
=18	=18	=18	=18	=18	=18	=18	=18	=18	=18	.
2F\	be-	4B-\]	.	2r	.	2c/	be-	2f/	be-	.
.	.	4A/	be-	.	.	.	.	.	.	.
2BB-/	ne.	4B-\	ne	4r	.	4d/	ne	4f/	ne	>
.	.	4F/	Re-	4d\	Re-	4f/	Re-	4b-\	Re-	<HOM_4v_rep
=19	=19	=19	=19	=19	=19	=19	=19	=19	=19	.
1r	.	4.F/	pen-	4.c\	pen-	4.f/	pen-	4.a/	pen-	.
.	.	8D/	teog-	8f\	teog-	8a/	teog-	8dd\	teog-	.
.	.	4E-/	ni	4e-\	ni	4g/	ni	4b-\	ni	.
.	.	4C/	mio	4e-\	mio	4g/	mio	4cc\	mio	.
=20	=20	=20	=20	=20	=20	=20	=20	=20	=20	.
1r	.	2D/	be-	2d\	be-	2f#/	be-	2a/	be-	.
.	.	2G/	ne.	2d\	ne.	2g/	ne.	2bn\	ne.	>
=21	=21	=21	=21	=21	=21	=21	=21	=21	=21	.
2G\	Ma	1r	.	2Bn\	Ma	2d/	Ma	1r	.	<ANTIF
2C/	las-	.	.	2c\	las-	2e-/	las-	.	.	.
=22	=22	=22	=22	=22	=22	=22	=22	=22	=22	.
2G\	so	2r	.	2Bn\	so	2d/	so	2r	.	.
2Bn\	Ma	2G/	Ma	2r	.	2g/	Ma	2dd\	Ma	.
=23	=23	=23	=23	=23	=23	=23	=23	=23	=23	.
2c\	las-	2C/	las-	1r	.	1g/	las-	2ee-\	las-	.
2Bn\	so	2G/	so	.	.	.	.	2dd\	so	.
=24	=24	=24	=24	=24	=24	=24	=24	=24	=24	.
2r	.	1r	.	2r	.	1f#/	so	1r	.	.
2D\	Ma	.	.	2A/	Ma	.	.	.	.	.
=25	=25	=25	=25	=25	=25	=25	=25	=25	=25	.
2E-\	las-	2r	.	2G/	las-	2r	.	1r	.	.
2D\	so	2A/	Ma	2F#/	so	2d/	Ma	.	.	.
=26	=26	=26	=26	=26	=26	=26	=26	=26	=26	.
1r	.	2G/	las-	1r	.	2e-/	las-	2r	.	.
.	.	2F#/	so	.	.	2d/	so	2a/	co-	><CON_4v+1doub
=27	=27	=27	=27	=27	=27	=27	=27	=27	=27	.
1G\	co-	1r	.	1d\	co-	1B-/	co-	2b-\	mea-	.
.	.	.	.	.	.	.	.	2g/	vien	.
=28	=28	=28	=28	=28	=28	=28	=28	=28	=28	.
2E-\	mea-	1r	.	2c\	mea-	2G/	mea-	4r	.	.
.	.	.	.	.	.	.	.	2g/	co-	.
4D\	vien	.	.	[2d\	vien	4A/	vien	.	.	.
4D\	che	.	.	.	.	4a/	che	4f/	mea-	.
=29	=29	=29	=29	=29	=29	=29	=29	=29	=29	.
2G\	ques-	1r	.	2d\]	.	2b-\	ques-	2d/	vien	.
2F#\	to	.	.	2d\	che	2a/	to	2r	.	.
=30	=30	=30	=30	=30	=30	=30	=30	=30	=30	.
2G\	lau-	2r	.	2B-\	ques-	2g/	lau-	2r	.	.
2D\	ro	4r	.	4A/	to	2f/	ro	2d/	che	.
.	.	4D/	che	[4B-\	lau-	.	.	.	.	.
=31	=31	=31	=31	=31	=31	=31	=31	=31	=31	.
1r	.	2E-/	ques-	4B-\]	.	2r	.	2g/	ques-	.
.	.	.	.	4G/	ro	.	.	.	.	.
.	.	2D/	to	4r	.	2A/	che	2f#/	to	.
.	.	.	.	4d\	che	.	.	.	.	.
=32	=32	=32	=32	=32	=32	=32	=32	=32	=32	.
1r	.	2C/	lau-	2e-\	ques-	2c/	ques-	1g/	lau-	.
.	.	2G/	ro	2d\	to	2Bn/	to	.	.	.
=33	=33	=33	=33	=33	=33	=33	=33	=33	=33	.
1r	.	1r	.	2c\	lau-	2c/	lau-	1g/	ro	.
.	.	.	.	2Bn\	ro	2d/	ro	.	.	>
=34	=34	=34	=34	=34	=34	=34	=34	=34	=34	.
1C/	co-	1r	.	1c\	co-	1e-/	co-	2r	.	<HOM_5v
.	.	.	.	.	.	.	.	2g/	co-	.
=35	=35	=35	=35	=35	=35	=35	=35	=35	=35	.
2C/	mea-	1r	.	2G/	mea-	2c/	mea-	2e-/	mea-	.
2GG/	vien	.	.	2G/	vien	2B-/	vien	2d/	vien	.
=36	=36	=36	=36	=36	=36	=36	=36	=36	=36	.
2G\	co-	2d\	co-	1r	.	4r	.	2b-\	co-	.
.	.	.	.	.	.	2g/	co-	.	.	.
2E-\	mea-	2G/	mea-	.	.	.	.	2cc\	mea-	.
.	.	.	.	.	.	4g/	mea-	.	.	.
=37	=37	=37	=37	=37	=37	=37	=37	=37	=37	.
4D\	vien	4A/	vien	1r	.	2f#/	vien	4dd\	vien	.
4D\	che	4d\	che	.	.	.	.	4a/	che	.
4G\	ques-	4d\	ques-	.	.	4g/	che	4b-\	ques-	.
4F#\	to	4A/	to	.	.	[4d/	ques-	4a/	to	.
=38	=38	=38	=38	=38	=38	=38	=38	=38	=38	.
2G\	lau-	2B-\	lau-	2r	.	4d/]	.	2g/	lau-	.
.	.	.	.	.	.	4d/	to	.	.	.
4D\	ro	4.A/	ro	2d\	che	[2d/	lau-	2f#/	ro	><CON_4v+1doub
4D\	che	.	.	.	.	.	.	.	.	.
.	.	8A/	che	.	.	.	.	.	.	.
=39	=39	=39	=39	=39	=39	=39	=39	=39	=39	.
2E-\	ques-	2G/	ques-	2g\	ques-	4d/]	.	2r	.	.
.	.	.	.	.	.	4c/	.	.	.	.
2D\	to	2A/	to	2f#\	to	2d/	ro	2dd\	che	.
=40	=40	=40	=40	=40	=40	=40	=40	=40	=40	.
2C/	lau-	2c\	lau-	[1g\	lau-	2r	.	2ee-\	ques-	.
4G\	so	4Bn\	ro	.	.	2d/	che	[2dd\	to	.
4G\	che	4B\	che	.	.	.	.	.	.	.
=41	=41	=41	=41	=41	=41	=41	=41	=41	=41	.
4C/	ques-	4c\	ques-	1g\]	.	4e-/	ques-	4dd\]	.	.
4C/	to	4G/	to	.	.	4e-/	to	2cc\	lau-	.
2GG/	lau-	2G/	lau-	.	.	2d/	lau-	.	.	.
.	.	.	.	.	.	.	.	4bn\	.	.
=42	=42	=42	=42	=42	=42	=42	=42	=42	=42	.
2C/	so	2G/	ro	2g\	ro	2e/	ro	2cc\	ro	>
2FF/	Ch'&agrave;	2c\	Ch'&agrave;	2f\	Ch'&agrave;	2f/	Ch'&agrave;	2a/	Ch'&agrave;	<HOM_5v
=43	=43	=43	=43	=43	=43	=43	=43	=43	=43	.
1BB-/	me	1F/	me	1d\	me	1f/	me	1b-\	me	.
=44	=44	=44	=44	=44	=44	=44	=44	=44	=44	.
3GG/	d'om-	3B-\	d'om-	3d\	d'om-	3g/	d'om-	3b-\	d'om-	.
6D\	bra&egrave;	6F/	bra&egrave;	6d\	bra&egrave;	6f/	bra&egrave;	6a/	bra&egrave;	.
6D\	si	6D/	si	6d\	si	6f/	si	6a/	si	.
3AA/	scar-	3E/	scar-	3c#\	scar-	3e/	scar-	3a/	scar-	.
=45	=45	=45	=45	=45	=45	=45	=45	=45	=45	.
2D\	so	2D/	so	2d\	so	2f#/	so	2a/	so	.
2GG/	Ch'&agrave;	[2G/	Ch&agrave;	2d\	Ch'&agrave;	2g/	Ch'&agrave;	2bn\	Ch'&agrave;	.
=46	=46	=46	=46	=46	=46	=46	=46	=46	=46	.
1C/	me	2G/]	.	1e\	me	1g/	me	1cc\	me	.
.	.	2c\	me	.	.	.	.	.	.	.
=47	=47	=47	=47	=47	=47	=47	=47	=47	=47	.
3BB-/	d'om-	3F/	d'om-	3f\	d'om-	3b-\	d'om-	3dd\	d'om-	.
6E\	bra	6G/	bra	6e-\	bra	6g/	bra	6b-\	bra	.
6C/	&egrave;	6G/	&egrave;	6e-\	&egrave;	6g/	&egrave;	6cc\	&egrave;	.
3D\	si	3D/	si	3d\	si	3f#/	si	3a/	si	.
=48	=48	=48	=48	=48	=48	=48	=48	=48	=48	.
2GG/	scar-	2G/	scar-	2d\	scar-	2g/	scar-	2bn\	scar-	.
2C/	soAl	2G/	soAl	2e-\	soAl-	2g/	soAl-	2cc\	soAl-	.
=49	=49	=49	=49	=49	=49	=49	=49	=49	=49	.
1GG/	trui	1G/	trui	1d\	trui	1g/	trui	1b-\	trui	.
=50	=50	=50	=50	=50	=50	=50	=50	=50	=50	.
1D\	poi	1A/	poi	1d\	poi	1f/	poi	2a/	poi	>
.	.	.	.	.	.	.	.	4a/	dia	<CON_4v+1doub
.	.	.	.	.	.	.	.	4b-\	gio-	.
=51	=51	=51	=51	=51	=51	=51	=51	=51	=51	.
1r	.	1r	.	4A/	dia	4c/	dia	4cc\	con-	.
.	.	.	.	4B-\	gio-	4d/	gio-	8b-/L	.	.
.	.	.	.	.	.	.	.	8a/J	.	.
.	.	.	.	4c\	con-	4e-/	con-	4g/	.	.
.	.	.	.	8B-/L	.	8d/L	.	4a/	.	.
.	.	.	.	8A/J	.	8c/J	.	.	.	.
=52	=52	=52	=52	=52	=52	=52	=52	=52	=52	.
1r	.	1r	.	4G/	.	4B-/	.	4b-\	.	.
.	.	.	.	4A/	.	4c/	.	2a/	.	.
.	.	.	.	2B-\	.	2d/	.	.	.	.
.	.	.	.	.	.	.	.	4g/	.	.
=53	=53	=53	=53	=53	=53	=53	=53	=53	=53	.
4AA/	dia	2r	.	2A/	do	1c/	do	2a/	do	.
4BB-/	gio-	.	.	.	.	.	.	.	.	.
4C/	con-	4E/	dia	2r	.	.	.	2r	.	.
8BB-/L	.	4F/	gio-	.	.	.	.	.	.	.
8AA/J	.	.	.	.	.	.	.	.	.	.
=54	=54	=54	=54	=54	=54	=54	=54	=54	=54	.
4GG/	.	4G/	con-	4B-\	dia	2r	.	1r	.	.
4AA/	.	8F/L	.	4c\	gio-	.	.	.	.	.
.	.	8E/J	.	.	.	.	.	.	.	.
2BB-/	.	4D/	.	4d\	con-	4f/	dia	.	.	.
.	.	4E/	.	8c\L	.	4g/	gio-	.	.	.
.	.	.	.	8B-\J	.	.	.	.	.	.
=55	=55	=55	=55	=55	=55	=55	=55	=55	=55	.
2FF/	do	2F/	.	4A/	.	4a/	con-	1cc\	Al-	.
.	.	.	.	4B-\	.	8g/L	.	.	.	.
.	.	.	.	.	.	8f/J	.	.	.	.
2C/	Al-	2G/	do	2c\	.	2e/	.	.	.	.
=56	=56	=56	=56	=56	=56	=56	=56	=56	=56	.
1G\	trui	2r	.	[1d\	do	2d/	do	1b-\	trui	.
.	.	4B-\	dia	.	.	2r	.	.	.	.
.	.	4c\	gio-	.	.	.	.	.	.	.
=57	=57	=57	=57	=57	=57	=57	=57	=57	=57	.
[1D\	poi	4d\	con-	1d\_	.	4f/	dia-	2a/	poi	.
.	.	8c\L	.	.	.	4g/	gio-	.	.	.
.	.	8B-\J	.	.	.	.	.	.	.	.
.	.	4A/	.	.	.	4a/	con-	2r	.	.
.	.	[4G/	.	.	.	4b-\	.	.	.	.
=58	=58	=58	=58	=58	=58	=58	=58	=58	=58	.
1D\]	.	4G/]	.	1d\]	.	1a/	.	1r	.	.
.	.	8F#/L	.	.	.	.	.	.	.	.
.	.	8E/J	.	.	.	.	.	.	.	.
.	.	2F#/	.	.	.	.	.	.	.	.
=59	=59	=59	=59	=59	=59	=59	=59	=59	=59	.
1r	.	1G/	do	2r	.	2g/	do	4b-\	dia	><CON_3v+1doub_rep
.	.	.	.	.	.	.	.	4cc\	gio-	.
.	.	.	.	4B-\	dia	4d/	dia	4dd\	con-	.
.	.	.	.	4c\	gio-	4e/	gio-	8cc\L	.	.
.	.	.	.	.	.	.	.	8b-\J	.	.
=60	=60	=60	=60	=60	=60	=60	=60	=60	=60	.
1r	.	1r	.	4d\	con-	4f/	con-	4a/	.	.
.	.	.	.	8c\L	.	8e/L	.	4b-\	.	.
.	.	.	.	8B-\J	.	8d/J	.	.	.	.
.	.	.	.	2A/	.	2c/	.	2cc\	.	.
=61	=61	=61	=61	=61	=61	=61	=61	=61	=61	.
1r	.	2r	.	2G/	do	1d/	do	1bn\	do	>
.	.	[2G/	al-	4g\	al-	.	.	.	.	<CON_5v
.	.	.	.	4f\	.	.	.	.	.	.
=62	=62	=62	=62	=62	=62	=62	=62	=62	=62	.
1C/	al-	2G/]	.	4e-\	.	1g/	al-	2r	.	.
.	.	.	.	4d\	.	.	.	.	.	.
.	.	2C/	mo	2e-\	.	.	.	[2cc\	al-	.
=63	=63	=63	=63	=63	=63	=63	=63	=63	=63	.
2GG/	mo	1G/	ris-	[1d\	mo	2g/	mo	2cc\]	.	.
2GG/	ris-	.	.	.	.	2g/	ris-	2b-\	mo	.
=64	=64	=64	=64	=64	=64	=64	=64	=64	=64	.
[1D\	tau-	2F#/	tau-	2d\]	.	[1d/	tau-	2a/	ris-	.
.	.	2G/	.	2B-\	ris-	.	.	[2g/	tau-	.
=65	=65	=65	=65	=65	=65	=65	=65	=65	=65	.
1D\]	.	1A/	.	1A/	tau-	1d/]	.	2g/]	.	.
.	.	.	.	.	.	.	.	2f#/	.	.
=66	=66	=66	=66	=66	=66	=66	=66	=66	=66	.
1GG/	ro?	1G/	ro?	1Bn\	ro?	1d/	ro?	1g/	ro?	>
==	==	==	==	==	==	==	==	==	==	==
*-	*-	*-	*-	*-	*-	*-	*-	*-	*-	*-
